public/icons/computer.svg

<svg width="56" height="56" viewBox="0 0 56 56" fill="none" xmlns="http://www.w3.org/2000/svg">
<rect width="56" height="56" rx="28" fill="#E8F1FC"/>
<path d="M21 18.5H35C36.6569 18.5 38 19.8431 38 21.5V31.5C38 33.1569 36.6569 34.5 35 34.5H21C19.3431 34.5 18 33.1569 18 31.5V21.5C18 19.8431 19.3431 18.5 21 18.5Z" fill="#093160"/>
<path d="M18 36.5C17.4477 36.5 17 36.9477 17 37.5C17 38.0523 17.4477 38.5 18 38.5H38C38.5523 38.5 39 38.0523 39 37.5C39 36.9477 38.5523 36.5 38 36.5H18Z" fill="#093160"/>
</svg>

<svg xmlns="http://www.w3.org/2000/svg" width="56" height="56" fill="none"><rect width="56" height="56" fill="#E8F1FC" rx="28"/><path fill="#093160" d="M21 18.5h14a3 3 0 0 1 3 3v10a3 3 0 0 1-3 3H21a3 3 0 0 1-3-3v-10a3 3 0 0 1 3-3M18 36.5a1 1 0 1 0 0 2h20a1 1 0 1 0 0-2z"/></svg>
